X:1
T:Sir Charles Forbes of New and Edinglassie. Air.
C:William Marshall
R:Air, strathspey
S:Marshall 1845 coll.
Z:Jack Campin, May 2000 (provisional version)
M:C
L:1/16
K:F Minor
"Very Slow with Feeling"
C2|F3GA3B AGFE cBAG|F3GA3B   c2A,2 c2BA|G2e2 e2=dc BAGF E3G|BAGF AGF=E F4F2 :|
c2|f3ga3f g2e2e2g2 |f3ga3f   agf=e f2g2|f3ga2b2    g2e2e2g2|f3ec2=e2   f4f2c2|
   f3ga3f g2e2e2g2 |f2a2g2b2 a2f2g2=d2 |edcB e2B2  G2E2E2G2|FGAB c2C2  F4F2 |]
